X:131
T:Hopkin's Corner
M:6/8
L:1/8
B:Thompson's Compleat Collection of 200 Favourite Country Dances, vol. 1 (London, 1757)
Z:Transcribed and edited by Flynn Titford-Mock, 2007
Z:abc's:AK/Fiddler's Companion
K:A
E|ABA ABc|efe efg|a2(a a)gf|edc {c}"tr"B2E|ABA ABc|efe efg|aga Bc^d|e3 E2:|
|:A|e2 (e e)dc|dBd cAc|B2(e e)dc|dBd cAc|E2(a a)gf|edc Bcd|cAc BGB|A3 A,2:|

